X:2877
T:Halling
C:anon.
O:Norway
A:\Osterdalen
B:O. M. Sandvik: "\Osterdalsmusikken"
R:Halling
Z:Transcribed by Frank Nordberg - http://www.musicaviva.com
F:http://abc.musicaviva.com/tunes/norway/halling/halling-1.abc
M:2/4
L:1/16
K:C
g2eg g2fa|aggeG4|g2eg g2fa|agegc'4|
Gceg d2ge|c2ecG4|GBdB c2eg|d2ge c2ec|GBdBc4|c4 z2|]
W:
W:
W:  From Musica Viva - http://www.musicaviva.com
W:  the Internet center for free sheet music downloads.
